X:1
T:Thanksgiving Song
T:Thanksgiving Song
T:John Marion Dye
T:John Marion Dye, 1904
T:Public Domain Courtesy of the Cyber Hymnal™
T:Public Domain Courtesy of the Cyber Hymnal™
C:John Marion Dye
Z:Public Domain
Z:Courtesy of the Cyber Hymnal™
%%score ( 1 2 ) ( 3 4 )
L:1/8
Q:1/4=105
M:4/4
K:E
V:1 treble 
V:2 treble 
V:3 bass 
V:4 bass 
V:1
 E>[EF] | [EG]2 [EG]2 [EA]2 [EA]2 | (G3 F) E2 [EG]>[EG] | ([DF] [DB]2) [DB] [FA]2 [DA]2 | %4
w: 1.~We would|thank Thee, heav’n- ly|Fa- * ther, For the|blessings * of our past|
w: 2.~We would|thank Thee for Thy|guid- * ance, Thou hast|kept~us * from day to|
w: 3.~We would|thank Thee, gra- cious|Fa- * ther, Life and|health * we still pos-|
 [EG]6 [GB]>[GB] | [Ac]2 [Ac]2 [Ac][ce][Bd][Ac] | [Ac]4 [GB]2 [EG]>[EG] | %7
w: days; And our|hearts to- day o’er- flow with|glad- ness, Un- to|
w: day; For our|com- mon good, dear Lord, we|thank Thee, Thou wilt|
w: sess; Now ac-|cept the trib- ute, Lord, we|bring Thee, We Thy|
 [DF][DB][EB][Ge] [Fd]2 [Ec]2 | ([DB]6 (3Bcd) ||"^Refrain" [Ge]4- [Ge][Ge] [Bd]>[Ac] | %10
w: Thee, we ren- der grate- ful|praise. * * *|Praise * Him, ev- er|
w: ev- er be our shield and|stay. * * *||
w: ho- ly name with prais- es|bless. * * *||
 [GB]4 [EG]4 | [AB]4- [AB]>[AB] [FA][Ac] | [GB]6 z2 | [Ae]4- [Ae]>[ce] [Bd][Ac] | [GB]4 [EG]4 | %15
w: praise Him,|And * His love pro-|claim;|Glo- * ry, praise and|hon- or|
w: |||||
w: |||||
 [GB]4- [GB]>[FA] [EG]>[DF] | E6 |] %17
w: Be * un- to His|name.|
w: ||
w: ||
V:2
 E3/2 x/ | x8 | E4 E2 x2 | x8 | x8 | x8 | x8 | x8 | x8 || x8 | x8 | x8 | x8 | x8 | x8 | x8 | %16
 (E>=DC>=C B,2) |] %17
V:3
 [E,G,]>[E,A,] | [E,B,]2 [E,B,]2 [E,C]2 [E,C]2 | (B,3 A,) [E,G,]2 [E,B,]>[E,B,] | %3
w: ~ ~|~ ~ ~ ~|~ * ~ ~ ~|
 [B,,B,] [B,,F,]2 [B,,B,] [D,B,]2 [B,,B,]2 | [E,B,]6 [E,E]>[E,E] | %5
w: ~ ~ ~ ~ ~|~ ~ ~|
 [A,E]2 [A,E]2 [A,E][A,E][A,E][A,E] | [E,E]4 [E,E]2 [E,B,]>[E,B,] | %7
w: ~ ~ ~ ~ ~ ~|~ ~ ~ ~|
 [F,B,][F,B,][G,B,][E,B,] [F,B,]2 [F,^A,]2 | [B,,B,]6 z2 || %9
w: ~ ~ ~ ~ ~ ~|~|
 [E,B,][E,B,][E,B,][E,B,] [A,C]2 [A,C]2 | [E,E][E,E][E,E][E,E] [E,B,]2 [E,B,]2 | %11
w: We will ev- er praise Him,|We will ev- er praise Him,|
 [B,,D][B,,D][D,D][F,D] [B,D]2 [B,,D]2 | [E,E]>[E,E] [E,E]>[E,E] [E,E]2 z2 | %13
w: And His love pro- claim, His|ho- ly love pro- claim,|
 [A,,C]>[A,,C] [A,,C][A,,C] [A,,C]>[B,,E] [C,E][D,E] | [E,E]>[E,E] [E,E]>[E,E] [E,B,]2 [E,B,]2 | %15
w: Glo- ry, praise and hon- or, glo- ry,|Glo- ry, praise and hon- or|
 [B,,E]>[B,,E] [B,,E]>[B,,E] [B,,E]2 z2 | [E,G,]>[E,B,] [E,A,]>[E,A,] [E,G,]2 |] %17
w: Be un- to His name,|To His ho- ly name.|
V:4
 x2 | x8 | E,4 x4 | x8 | x8 | x8 | x8 | x8 | x8 || x8 | x8 | x8 | x8 | x8 | x8 | x8 | x6 |] %17

